X:1
T:Coimbatore, LMD
T:Coimbatore, LMD
T:Partly by Zimri Mullen Parvin, 1875
T:Public Domain Courtesy of the Cyber Hymnal™
C:Partly by Zimri Mullen Parvin, 1875
Z:Public Domain
Z:Courtesy of the Cyber Hymnal™
%%score ( 1 2 ) 3
L:1/8
Q:1/4=145
M:3/2
K:F
V:1 treble 
V:2 treble 
V:3 bass 
V:1
 [CF]2 [CF]2 [FA]2 | [Fc]4 [FB]4 [FA]2 F2 | [EG]4 [EG]4 [EG]2 [FA]2 | [FB]4 [FB]4 [FA]2 [EG]2 | %4
 [FA]6 [CF]2 [CF]2 [FA]2 | [Fc]4 [FA]4 [FB]2 [Fc]2 | [Fd]4 [GB]4 [FA]2 [DG]2 | %7
 [CF]4 [FA]4 [EG]2 [CE]2 | [CF]6 [EG]2 [EG]2 [FA]2 | [GB]4 [GB]4 [FA]2 [EG]2 | %10
 [FA]4 [FA]4 [FB]2 [Fc]2 | [Fd]4 [Fd]4 [Fc]2 [FA]2 | [EG]6 C2 F4 | [CF]4 [FA]4 c4 | %14
 [Fd]4 [GB]4 [FA]2 [DG]2 | [CF]4 [FA]4 [EG]2 [CE]2 | [CF]6 |] %17
V:2
 x6 | x10 F2 | x12 | x12 | x12 | x12 | x12 | x12 | x12 | x12 | x12 | x12 | x8 C2 C2 | x8 F2 F2 | %14
 x12 | x12 | x6 |] %17
V:3
 [F,A,]2 [F,A,]2 [F,C]2 | [F,A,]4 [F,D]4 [F,C]2 [F,A,]2 | [C,C]4 [C,C]4 [C,C]2 [F,C]2 | %3
 [B,,D]4 [B,,D]4 [C,C]2 [C,C]2 | [F,C]6 [F,A,]2 [F,A,]2 [F,C]2 | [F,A,]4 [_E,C]4 [D,B,]2 [C,A,]2 | %6
 [B,,B,]4 [G,,D]4 [A,,C]2 [B,,B,]2 | [C,A,]4 [C,C]4 [C,B,]2 [C,G,]2 | %8
 [F,A,]6 [C,C]2 [C,C]2 [C,C]2 | [C,C]4 [C,C]4 [C,C]2 [C,C]2 | [F,C]4 [F,C]4 [F,B,]2 [F,A,]2 | %11
 [B,,B,]4 [B,,B,]4 [F,A,]2 [F,C]2 | [C,C]6 [F,A,]2 [F,A,]2 [F,A,]2 | %13
 [F,A,]4 [F,C]4 [F,A,]2 [F,A,]2 | [B,,B,]4 [G,,D]4 [A,,C]2 [B,,B,]2 | %15
 [C,A,]4 [C,C]4 [C,B,]2 [C,G,]2 | [F,,F,A,]6 |] %17

